X:6
T:Conny's
Z: id:dc-msippel-210
M:C|
L:1/8
K:G Major
DFA|GdGF GEDy|B,ED2 DFA2|dcBA G2DB|AGFE G2FG|!
B2AG EGDFG|dGAG FDDC|G3G FAG2|edcA AdA2|!
G2G2 DGGd|cec2 dcgB|A2cA GABc|d2GG F2:|!
AG|FDDG FGA|AFd fed|ccBc AG^cd|e2d^ dcd|]!
FE|DEB,G _3BB|cBGA BGce|g2fg edcB|defg afe^c|ded f2:|!
Be|fgfg afdg|fdAd cAFA|Gggd Bdge|dBcA GED:|!

